Project2/Spectrometer files/spec1.sp
SPECT  

DESCRIPTOR "Argyll Spectral power/reflectance information"
ORIGINATOR "Argyll CMS"
CREATED "Wed Sep 20 17:40:52 2023"
MEAS_TYPE "REFLECTIVE"
MEAS_CONDITIONS "CUSTOM"
SPECTRAL_BANDS "36"
SPECTRAL_START_NM "380.000000"
SPECTRAL_END_NM "730.000000"
SPECTRAL_NORM "100.000000"

NUMBER_OF_FIELDS 36
BEGIN_DATA_FORMAT
SPEC_380 SPEC_390 SPEC_400 SPEC_410 SPEC_420 SPEC_430 SPEC_440 SPEC_450 SPEC_460 SPEC_470 SPEC_480 SPEC_490 SPEC_500 SPEC_510 SPEC_520 SPEC_530 SPEC_540 SPEC_550 SPEC_560 SPEC_570 SPEC_580 SPEC_590 SPEC_600 SPEC_610 SPEC_620 SPEC_630 SPEC_640 SPEC_650 SPEC_660 SPEC_670 SPEC_680 SPEC_690 SPEC_700 SPEC_710 SPEC_720 SPEC_730 
END_DATA_FORMAT

NUMBER_OF_SETS 1
BEGIN_DATA
54.19679 54.19828 54.19986 54.20158 54.20366 55.40985 56.26589 56.97229 57.15104 56.87410 56.42809 56.01408 55.81446 55.82652 55.95346 55.98564 56.03673 56.02339 55.88041 56.02795 55.90418 55.82536 55.67399 55.49674 55.31716 55.10715 55.00995 54.85661 54.77075 54.57989 54.35274 54.05946 54.04343 53.90187 53.86170 53.91682 
END_DATA
