Project7/workflow_test_cal.ti1
CTI1

COLOR_REP "RGB"

NUMBER_OF_FIELDS 4
BEGIN_DATA_FORMAT
SAMPLE_ID RGB_R RGB_G RGB_B
END_DATA_FORMAT

NUMBER_OF_SETS 30
BEGIN_DATA
1	44	34	27
2	82	57	52
3	38	45	62
4	34	42	27
5	52	44	69
6	19	77	68
7	89	46	0
8	33	30	66
9	83	26	37
10	39	24	42
11	54	78	17
12	91	64	0
13	0	13	55
14	0	59	31
15	75	0	24
16	93	80	0
17	77	12	56
18	0	48	65
19	93	94	94
20	76	77	76
21	57	60	60
22	42	45	45
23	33	34	34
24	22	19	12
25	0	0	0
26	0	0	0
27	0	0	0
28	100	100	100
29	100	100	100
30	100	100	100
END_DATA
