Project7/workflow_test_uncal.ti3
CTI3   

DESCRIPTOR "Argyll Calibration Target chart information 3"
ORIGINATOR "Argyll dispread"
CREATED "Thu Nov 30 13:34:08 2023"
DEVICE_CLASS "DISPLAY"
COLOR_REP "RGB_XYZ"
TARGET_INSTRUMENT "X-Rite ColorMunki"
DISPLAY_TYPE_REFRESH "YES"
INSTRUMENT_TYPE_SPECTRAL "YES"
LUMINANCE_XYZ_CDM2 "276.497172 289.967396 346.125486"
NORMALIZED_TO_Y_100 "YES"

NUMBER_OF_FIELDS 7
BEGIN_DATA_FORMAT
SAMPLE_ID RGB_R RGB_G RGB_B XYZ_X XYZ_Y XYZ_Z 
END_DATA_FORMAT

NUMBER_OF_SETS 30
BEGIN_DATA
1 40.00000 22.00000 15.00000 7.409723 6.136308 3.165564 
2 92.00000 65.00000 54.00000 53.19145 49.18909 36.60737 
3 37.00000 49.00000 67.00000 21.87396 23.12593 46.69049 
4 29.00000 37.00000 15.00000 7.569367 9.565602 3.721595 
5 54.00000 51.00000 76.00000 31.14093 29.77725 61.84006 
6 39.00000 83.00000 73.00000 41.66974 54.32359 61.51391 
7 100.0000 52.00000 0.00000 46.81909 38.49033 8.163105 
8 20.00000 32.00000 73.00000 15.50271 14.09112 53.78717 
9 97.00000 31.00000 39.00000 41.60251 28.81767 19.93750 
10 31.00000 15.00000 39.00000 6.634317 5.065256 14.34131 
11 73.00000 88.00000 0.00000 48.31000 60.60674 11.66072 
12 100.0000 73.00000 0.00000 56.83173 55.60559 11.28476 
13 3.000000 12.00000 58.00000 6.919418 5.332272 31.00960 
14 18.00000 62.00000 16.00000 14.60975 23.31001 6.500029 
15 84.00000 1.000000 17.00000 26.98430 16.36837 6.086273 
16 100.0000 92.00000 0.00000 69.20750 76.74339 15.21101 
17 90.00000 27.00000 66.00000 41.96623 28.72841 46.91869 
18 0.00000 53.00000 71.00000 19.63202 23.28165 52.08078 
19 96.00000 96.00000 93.00000 88.35253 93.21085 105.2112 
20 83.00000 83.00000 80.00000 64.96613 68.66502 75.70388 
21 66.00000 65.00000 64.00000 38.65586 40.53575 45.44359 
22 44.00000 45.00000 43.00000 17.23151 18.40257 20.22848 
23 24.00000 24.00000 24.00000 4.450827 4.669205 5.464566 
24 7.000000 7.000000 9.000000 0.529663 0.532276 0.877971 
25 0.00000 0.00000 0.00000 0.0763894 0.0751803 0.134073 
26 0.00000 0.00000 0.00000 0.0785263 0.0772646 0.136469 
27 0.00000 0.00000 0.00000 0.0774649 0.0760653 0.134803 
28 100.0000 100.0000 100.0000 95.35457 100.0000 119.3670 
29 100.0000 100.0000 100.0000 95.34126 99.98839 119.3578 
30 100.0000 100.0000 100.0000 95.35454 100.0009 119.3700 
END_DATA
