Project7/workflow_test_cal.ti3
CTI3   

DESCRIPTOR "Argyll Calibration Target chart information 3"
ORIGINATOR "Argyll dispread"
CREATED "Mon Dec 04 16:14:39 2023"
DEVICE_CLASS "DISPLAY"
COLOR_REP "RGB_XYZ"
TARGET_INSTRUMENT "X-Rite ColorMunki"
DISPLAY_TYPE_REFRESH "YES"
INSTRUMENT_TYPE_SPECTRAL "YES"
LUMINANCE_XYZ_CDM2 "261.146327 275.917614 329.711554"
NORMALIZED_TO_Y_100 "YES"

NUMBER_OF_FIELDS 7
BEGIN_DATA_FORMAT
SAMPLE_ID RGB_R RGB_G RGB_B XYZ_X XYZ_Y XYZ_Z 
END_DATA_FORMAT

NUMBER_OF_SETS 30
BEGIN_DATA
1 44.00000 34.00000 27.00000 11.89273 11.60663 8.348626 
2 82.00000 57.00000 52.00000 41.66627 38.22633 32.64460 
3 38.00000 45.00000 62.00000 19.46382 20.25430 39.23731 
4 34.00000 42.00000 27.00000 11.16049 13.60827 8.645720 
5 52.00000 44.00000 69.00000 25.86161 23.89904 50.27202 
6 19.00000 77.00000 68.00000 31.73055 44.12617 52.10199 
7 89.00000 46.00000 0.00000 37.22981 30.74956 6.526914 
8 33.00000 30.00000 66.00000 15.20614 13.16023 43.39115 
9 83.00000 26.00000 37.00000 30.77402 21.28860 16.82125 
10 39.00000 24.00000 42.00000 10.37907 8.524538 17.73883 
11 54.00000 78.00000 17.00000 32.73313 44.74227 11.08445 
12 91.00000 64.00000 0.00000 45.53636 43.60713 8.985155 
13 0.00000 13.00000 55.00000 6.295854 4.888540 27.88564 
14 0.00000 59.00000 31.00000 13.25947 21.28400 12.01824 
15 75.00000 0.00000 24.00000 21.90781 13.45375 7.650864 
16 93.00000 80.00000 0.00000 56.09150 60.23994 12.15117 
17 77.00000 12.00000 56.00000 28.74837 18.54334 32.67564 
18 0.00000 48.00000 65.00000 16.05285 19.12580 42.92523 
19 93.00000 94.00000 94.00000 84.92198 90.22096 107.2919 
20 76.00000 77.00000 76.00000 55.18185 58.71528 67.99076 
21 57.00000 60.00000 60.00000 30.64413 33.04554 39.45817 
22 42.00000 45.00000 45.00000 17.03319 18.47693 22.22079 
23 33.00000 34.00000 34.00000 9.560742 10.25172 12.20209 
24 22.00000 19.00000 12.00000 2.924023 3.047717 1.920430 
25 0.00000 0.00000 0.00000 0.0817969 0.0804556 0.146106 
26 0.00000 0.00000 0.00000 0.0817062 0.0800538 0.145592 
27 0.00000 0.00000 0.00000 0.0815229 0.0796150 0.146350 
28 100.0000 100.0000 100.0000 94.64649 100.0000 119.4964 
29 100.0000 100.0000 100.0000 94.64387 99.99808 119.4912 
30 100.0000 100.0000 100.0000 94.65714 100.0091 119.5210 
END_DATA
