Project7/workflow_test_uncal.ti1
CTI1

COLOR_REP "RGB"

NUMBER_OF_FIELDS 4
BEGIN_DATA_FORMAT
SAMPLE_ID RGB_R RGB_G RGB_B
END_DATA_FORMAT

NUMBER_OF_SETS 30
BEGIN_DATA
1	40	22	15
2	92	65	54
3	37	49	67
4	29	37	15
5	54	51	76
6	39	83	73
7	100	52	0
8	20	32	73
9	97	31	39
10	31	15	39
11	73	88	0
12	100	73	0
13	3	12	58
14	18	62	16
15	84	1	17
16	100	92	0
17	90	27	66
18	0	53	71
19	96	96	93
20	83	83	80
21	66	65	64
22	44	45	43
23	24	24	24
24	7	7	9
25	0	0	0
26	0	0	0
27	0	0	0
28	100	100	100
29	100	100	100
30	100	100	100
END_DATA
