Project6/project6_resources/disp_model_test.ti3
CTI3   

DESCRIPTOR "Argyll Calibration Target chart information 3"
ORIGINATOR "Argyll dispread"
CREATED "Tue Nov 28 13:44:38 2023"
DEVICE_CLASS "DISPLAY"
COLOR_REP "RGB_XYZ"
TARGET_INSTRUMENT "X-Rite ColorMunki"
DISPLAY_TYPE_REFRESH "YES"
INSTRUMENT_TYPE_SPECTRAL "YES"
LUMINANCE_XYZ_CDM2 "279.035390 292.587313 347.702474"
NORMALIZED_TO_Y_100 "YES"

NUMBER_OF_FIELDS 7
BEGIN_DATA_FORMAT
SAMPLE_ID RGB_R RGB_G RGB_B XYZ_X XYZ_Y XYZ_Z 
END_DATA_FORMAT

NUMBER_OF_SETS 30
BEGIN_DATA
1 46.00000 29.00000 24.00000 10.83790 9.476979 6.432365 
2 78.00000 56.00000 48.00000 37.68039 34.91300 27.39672 
3 35.00000 45.00000 62.00000 18.29767 19.33717 38.16701 
4 29.00000 43.00000 25.00000 9.944128 12.98587 7.430040 
5 51.00000 44.00000 69.00000 25.01824 23.19131 49.15293 
6 19.00000 76.00000 67.00000 30.96447 42.64490 49.64738 
7 89.00000 45.00000 5.000000 36.95210 29.93897 6.558102 
8 30.00000 28.00000 65.00000 13.52034 11.56954 40.93165 
9 82.00000 23.00000 36.00000 29.14927 19.63708 15.57315 
10 37.00000 16.00000 40.00000 8.394451 6.252550 15.30502 
11 53.00000 77.00000 21.00000 31.84094 42.85781 11.79483 
12 93.00000 63.00000 0.00000 46.66814 43.24368 8.855030 
13 24.00000 11.00000 58.00000 8.497026 6.172159 30.95932 
14 0.00000 62.00000 27.00000 14.18166 22.94218 10.05867 
15 75.00000 0.00000 21.00000 21.42817 13.04006 6.540496 
16 93.00000 81.00000 0.00000 57.00809 60.87431 12.07765 
17 79.00000 15.00000 57.00000 29.95122 19.46561 32.93604 
18 0.00000 50.00000 65.00000 16.61659 20.09416 42.20384 
19 93.00000 94.00000 94.00000 85.37368 90.03267 106.4747 
20 76.00000 76.00000 77.00000 54.70521 57.38975 67.87261 
21 62.00000 62.00000 63.00000 34.24275 35.86121 43.02153 
22 45.00000 46.00000 47.00000 18.33036 19.30101 23.42275 
23 32.00000 32.00000 33.00000 8.532969 8.915243 10.85115 
24 19.00000 19.00000 19.00000 2.849217 2.987099 3.500545 
25 0.00000 0.00000 0.00000 0.0750056 0.0738235 0.131483 
26 0.00000 0.00000 0.00000 0.0720417 0.0706290 0.127831 
27 0.00000 0.00000 0.00000 0.0727084 0.0711176 0.128491 
28 100.0000 100.0000 100.0000 95.36825 100.0000 118.8372 
29 100.0000 100.0000 100.0000 95.37884 100.0106 118.8455 
30 100.0000 100.0000 100.0000 95.36413 99.99658 118.8230 
END_DATA
