ColorToolbox/Data/5.1_imaged.sp
SPECT  

DESCRIPTOR "Argyll Spectral power/reflectance information"
ORIGINATOR "Argyll CMS"
CREATED "Wed Sep 20 17:58:19 2023"
MEAS_TYPE "TRANSMISSIVE"
SPECTRAL_BANDS "36"
SPECTRAL_START_NM "380.000000"
SPECTRAL_END_NM "730.000000"
SPECTRAL_NORM "100.000000"

NUMBER_OF_FIELDS 36
BEGIN_DATA_FORMAT
SPEC_380 SPEC_390 SPEC_400 SPEC_410 SPEC_420 SPEC_430 SPEC_440 SPEC_450 SPEC_460 SPEC_470 SPEC_480 SPEC_490 SPEC_500 SPEC_510 SPEC_520 SPEC_530 SPEC_540 SPEC_550 SPEC_560 SPEC_570 SPEC_580 SPEC_590 SPEC_600 SPEC_610 SPEC_620 SPEC_630 SPEC_640 SPEC_650 SPEC_660 SPEC_670 SPEC_680 SPEC_690 SPEC_700 SPEC_710 SPEC_720 SPEC_730 
END_DATA_FORMAT

NUMBER_OF_SETS 1
BEGIN_DATA
20.78691 18.97209 17.03271 31.21556 30.92118 27.77018 25.40772 23.78967 22.92287 24.08509 26.57387 28.37106 29.57058 30.56237 31.78378 32.91179 33.76118 34.77955 35.89183 41.58807 58.15630 69.13914 75.33821 80.88768 85.22405 86.64262 87.05378 87.28947 86.10988 84.75500 83.44708 80.63531 78.49397 77.87839 77.26521 76.84077 
END_DATA
