ColorToolbox/Data/5.2_matching.sp
SPECT  

DESCRIPTOR "Argyll Spectral power/reflectance information"
ORIGINATOR "Argyll CMS"
CREATED "Wed Sep 20 18:38:16 2023"
MEAS_TYPE "TRANSMISSIVE"
SPECTRAL_BANDS "36"
SPECTRAL_START_NM "380.000000"
SPECTRAL_END_NM "730.000000"
SPECTRAL_NORM "100.000000"

NUMBER_OF_FIELDS 36
BEGIN_DATA_FORMAT
SPEC_380 SPEC_390 SPEC_400 SPEC_410 SPEC_420 SPEC_430 SPEC_440 SPEC_450 SPEC_460 SPEC_470 SPEC_480 SPEC_490 SPEC_500 SPEC_510 SPEC_520 SPEC_530 SPEC_540 SPEC_550 SPEC_560 SPEC_570 SPEC_580 SPEC_590 SPEC_600 SPEC_610 SPEC_620 SPEC_630 SPEC_640 SPEC_650 SPEC_660 SPEC_670 SPEC_680 SPEC_690 SPEC_700 SPEC_710 SPEC_720 SPEC_730 
END_DATA_FORMAT

NUMBER_OF_SETS 1
BEGIN_DATA
37.24022 34.13574 30.81926 52.22249 52.93533 51.21302 49.83982 48.76837 48.12840 51.16301 57.23794 61.90102 65.06776 67.21508 69.52823 71.78869 74.26074 75.99259 77.44014 78.78868 81.41804 82.66445 84.03247 84.84799 85.58541 86.67454 86.31495 86.21787 86.24000 86.03899 85.98548 86.31351 86.24298 85.26526 86.74120 87.61021 
END_DATA
