ColorToolbox/Data/5.2_real.sp
SPECT  

DESCRIPTOR "Argyll Spectral power/reflectance information"
ORIGINATOR "Argyll CMS"
CREATED "Wed Sep 20 18:20:13 2023"
MEAS_TYPE "REFLECTIVE"
MEAS_CONDITIONS "CUSTOM"
SPECTRAL_BANDS "36"
SPECTRAL_START_NM "380.000000"
SPECTRAL_END_NM "730.000000"
SPECTRAL_NORM "100.000000"

NUMBER_OF_FIELDS 36
BEGIN_DATA_FORMAT
SPEC_380 SPEC_390 SPEC_400 SPEC_410 SPEC_420 SPEC_430 SPEC_440 SPEC_450 SPEC_460 SPEC_470 SPEC_480 SPEC_490 SPEC_500 SPEC_510 SPEC_520 SPEC_530 SPEC_540 SPEC_550 SPEC_560 SPEC_570 SPEC_580 SPEC_590 SPEC_600 SPEC_610 SPEC_620 SPEC_630 SPEC_640 SPEC_650 SPEC_660 SPEC_670 SPEC_680 SPEC_690 SPEC_700 SPEC_710 SPEC_720 SPEC_730 
END_DATA_FORMAT

NUMBER_OF_SETS 1
BEGIN_DATA
41.62793 41.61375 41.59850 41.58213 41.56572 43.58601 45.68966 47.43092 48.39977 48.90126 49.77707 51.35036 53.70390 57.19818 62.15405 67.44441 72.00555 75.76913 78.64132 80.73225 81.42532 81.58649 81.41366 81.18952 81.05447 81.06267 81.37638 81.82067 82.32816 82.60779 82.66688 82.57746 82.85353 83.05183 83.47056 84.29416 
END_DATA
