ColorToolbox/Data/disp_model_test.ti1
CTI1

COLOR_REP "RGB"

NUMBER_OF_FIELDS 4
BEGIN_DATA_FORMAT
SAMPLE_ID RGB_R RGB_G RGB_B
END_DATA_FORMAT

NUMBER_OF_SETS 30
BEGIN_DATA
1 46 29 24
2 78 56 48
3 35 45 62
4 29 43 25
5 51 44 69
6 19 76 67
7 89 45 5
8 30 28 65
9 82 23 36
10 37 16 40
11 53 77 21
12 93 63 0
13 24 11 58
14 0 62 27
15 75 0 21
16 93 81 0
17 79 15 57
18 0 50 65
19 93 94 94
20 76 76 77
21 62 62 63
22 45 46 47
23 32 32 33
24 19 19 19
25 0 0 0
26 0 0 0
27 0 0 0
28 100 100 100
29 100 100 100
30 100 100 100
END_DATA