ColorToolbox/Data/ramps_plus.ti3
CTI3   

DESCRIPTOR "Argyll Calibration Target chart information 3"
ORIGINATOR "Argyll dispread"
CREATED "Thu Nov 09 11:59:25 2023"
DEVICE_CLASS "DISPLAY"
SINGLE_DIM_STEPS "11"
COMP_GREY_STEPS "11"
COLOR_REP "RGB_XYZ"
TARGET_INSTRUMENT "X-Rite ColorMunki"
DISPLAY_TYPE_REFRESH "YES"
INSTRUMENT_TYPE_SPECTRAL "YES"
LUMINANCE_XYZ_CDM2 "274.203695 287.854616 341.259405"
NORMALIZED_TO_Y_100 "YES"

NUMBER_OF_FIELDS 7
BEGIN_DATA_FORMAT
SAMPLE_ID RGB_R RGB_G RGB_B XYZ_X XYZ_Y XYZ_Z 
END_DATA_FORMAT

NUMBER_OF_SETS 47
BEGIN_DATA
1 100.0000 100.0000 100.0000 95.25770 100.0000 118.5527 
2 0.00000 20.00000 0.00000 1.266212 2.111429 0.502611 
3 20.00000 20.00000 20.00000 3.238580 3.397778 3.972155 
4 0.00000 0.00000 0.00000 0.0804274 0.0795708 0.142080 
5 0.00000 0.00000 90.00000 17.05205 11.94475 82.22287 
6 0.00000 0.00000 100.0000 21.02283 14.59110 101.5760 
7 0.00000 0.00000 0.00000 0.0796742 0.0788038 0.139998 
8 0.00000 0.00000 10.00000 0.253510 0.200636 0.979990 
9 10.00000 10.00000 10.00000 0.892086 0.932810 1.130614 
10 20.00000 0.00000 0.00000 1.304971 0.815695 0.303911 
11 30.00000 0.00000 0.00000 2.896731 1.772874 0.518325 
12 40.00000 0.00000 0.00000 5.456347 3.313718 0.864028 
13 10.00000 0.00000 0.00000 0.399805 0.271362 0.184337 
14 50.00000 0.00000 0.00000 8.641478 5.229830 1.289847 
15 60.00000 0.00000 0.00000 12.44382 7.518865 1.805213 
16 70.00000 0.00000 0.00000 17.94461 10.82886 2.546224 
17 80.00000 0.00000 0.00000 23.77063 14.33386 3.332145 
18 100.0000 0.00000 0.00000 37.42173 22.54609 5.315725 
19 90.00000 0.00000 0.00000 30.80380 18.56444 4.301267 
20 100.0000 100.0000 100.0000 95.21910 99.95280 118.7453 
21 0.00000 30.00000 0.00000 2.802394 4.741920 0.973673 
22 0.00000 40.00000 0.00000 5.276933 8.980499 1.735375 
23 0.00000 50.00000 0.00000 8.365051 14.26994 2.679953 
24 0.00000 60.00000 0.00000 12.05608 20.59243 3.809232 
25 0.00000 70.00000 0.00000 17.41346 29.77203 5.453611 
26 0.00000 80.00000 0.00000 23.11314 39.52961 7.217298 
27 0.00000 90.00000 0.00000 30.02433 51.37291 9.373463 
28 0.00000 0.00000 50.00000 4.747833 3.354937 22.68116 
29 0.00000 0.00000 20.00000 0.747951 0.549036 3.361381 
30 0.00000 0.00000 40.00000 3.005132 2.131627 14.27254 
31 0.00000 0.00000 60.00000 6.822592 4.808545 32.73197 
32 0.00000 0.00000 0.00000 0.0781627 0.0773120 0.139404 
33 100.0000 100.0000 100.0000 95.19142 99.92109 118.7004 
34 0.00000 10.00000 0.00000 0.388806 0.606929 0.236610 
35 0.00000 0.00000 0.00000 0.0795784 0.0782894 0.141325 
36 0.00000 100.0000 0.00000 36.58280 62.64978 11.53143 
37 100.0000 100.0000 100.0000 95.19218 99.91992 118.6900 
38 0.00000 0.00000 70.00000 9.856196 6.937489 47.34695 
39 0.00000 0.00000 80.00000 13.08334 9.194208 62.98222 
40 0.00000 0.00000 30.00000 1.607804 1.150701 7.522490 
41 30.00000 30.00000 30.00000 7.345693 7.714150 8.981779 
42 40.00000 40.00000 40.00000 13.95908 14.66649 17.03828 
43 50.00000 50.00000 50.00000 22.16598 23.29716 27.05949 
44 60.00000 60.00000 60.00000 31.89750 33.53369 38.94935 
45 70.00000 70.00000 70.00000 45.93176 48.29890 56.14624 
46 80.00000 80.00000 80.00000 60.80018 63.92628 74.45837 
47 90.00000 90.00000 90.00000 78.54811 82.55533 96.66411 
END_DATA
